X: 11067
T: Duchess Of Buccleuch's Favourite, The
R: strathspey
M: 4/4
K: Dmajor
F/G/|AB B/A/G/F/ AFF>G|AFdF A2 AF/G/|AB B/A/G/F/ AF f>e|
d>BAF E3 F/G/|AB B/A/G/F/ AFF>G|AFdF A2 Af/g/|
afge fdec|1 d>B AF E3:|2 d>B AF D3||
B|AFFB AFFB|AFdF A2 AB|AFFB AFFA|
d>BAF E2 EB|AFFB AFFB|AFdF A2 Af/g/|
afge fdec|1 d>B AF E3:|2 d>B AF D3||

